Sources/FrostedUI/Resources/Icons.xcassets/palette24.imageset/palette-24.svg

<svg width="24" height="24" viewBox="0 0 24 24" fill="none" xmlns="http://www.w3.org/2000/svg" data-fui-icon="true">
  <path
    d="M12 1C18.0751 1 23 5.92487 23 12C23 12.9303 22.8841 13.8349 22.666 14.6992C22.2877 16.198 20.8657 17.0029 19.4844 17.0029H15.0684C14.1559 17.003 13.3462 17.5875 13.0576 18.4531L12.3574 20.5537C11.8926 21.9483 10.4452 23.0172 8.85352 22.543C4.31255 21.1894 1 16.9825 1 12C1 5.92487 5.92487 1 12 1ZM12 2.5C6.75329 2.5 2.5 6.75329 2.5 12C2.5 16.3009 5.35867 19.9361 9.28125 21.1055C9.92049 21.296 10.6621 20.8938 10.9336 20.0801L11.6348 17.9785C12.1275 16.5005 13.5103 15.503 15.0684 15.5029H19.4844C20.35 15.5029 21.0404 15.0119 21.2119 14.332C21.4 13.5867 21.5 12.8055 21.5 12C21.5 6.75329 17.2467 2.5 12 2.5ZM7.25 13.5C7.94036 13.5 8.5 14.0596 8.5 14.75C8.5 15.4404 7.94036 16 7.25 16C6.55964 16 6 15.4404 6 14.75C6 14.0596 6.55964 13.5 7.25 13.5ZM7.25 8C7.94036 8 8.5 8.55964 8.5 9.25C8.5 9.94036 7.94036 10.5 7.25 10.5C6.55964 10.5 6 9.94036 6 9.25C6 8.55964 6.55964 8 7.25 8ZM17.75 8C18.4404 8 19 8.55964 19 9.25C19 9.94036 18.4404 10.5 17.75 10.5C17.0596 10.5 16.5 9.94036 16.5 9.25C16.5 8.55964 17.0596 8 17.75 8ZM12 5C12.6904 5 13.25 5.55964 13.25 6.25C13.25 6.94036 12.6904 7.5 12 7.5C11.3096 7.5 10.75 6.94036 10.75 6.25C10.75 5.55964 11.3096 5 12 5Z"
    fill="currentColor"
  />
</svg>

<svg xmlns="http://www.w3.org/2000/svg" width="24" height="24" fill="none" data-fui-icon="true" viewBox="0 0 24 24"><path fill="currentColor" d="M12 1c6.075 0 11 4.925 11 11 0 .93-.116 1.835-.334 2.7-.378 1.498-1.8 2.303-3.182 2.303h-4.416a2.12 2.12 0 0 0-2.01 1.45l-.7 2.1c-.465 1.395-1.913 2.464-3.504 1.99C4.313 21.189 1 16.983 1 12 1 5.925 5.925 1 12 1m0 1.5A9.5 9.5 0 0 0 2.5 12c0 4.3 2.859 7.936 6.781 9.106.64.19 1.381-.212 1.653-1.026l.7-2.101a3.62 3.62 0 0 1 3.434-2.476h4.416c.866 0 1.556-.491 1.728-1.171A9.5 9.5 0 0 0 12 2.5m-4.75 11a1.25 1.25 0 1 1 0 2.5 1.25 1.25 0 0 1 0-2.5m0-5.5a1.25 1.25 0 1 1 0 2.5 1.25 1.25 0 0 1 0-2.5m10.5 0a1.25 1.25 0 1 1 0 2.5 1.25 1.25 0 0 1 0-2.5M12 5a1.25 1.25 0 1 1 0 2.5A1.25 1.25 0 0 1 12 5"/></svg>
